X: 37
T:Gavotte
M:12/8
L:1/4
O:France
A:Bretagne
K:C
E3/2AB/2cB/2c3/2|B/2c/2B/2 A G/2 A3/2A3/2:|
|:E3/2AB/2cB/2c3/2|A/2B/2A/2 GA/2BG/2 F3/2|
F3/2A B/2 cB/2c3/2|B/2c/2B/2AG/2 A3/2A3/2:||
W:
W: From "Falaleiro" http://home.t-online.de/home/pheld/homepage.htm

